;FLAVOR:UltiGCode
;TIME:7339
;MATERIAL:29983
;MATERIAL2:0
;NOZZLE_DIAMETER:0.8
;MINX:50.94
;MINY:44.023
;MINZ:0.4
;MAXX:92.449
;MAXY:178.979
;MAXZ:26
;Generated with Cura_SteamEngine main
M82 ;absolute extrusion mode
G0 F3000 Y50 ;avoid prime blob
G92 E0
G92 E0
G10
;LAYER_COUNT:129
;LAYER:0
M107
G0 F5400 X55.286 Y47.162 Z0.4
G0 X53.67 Y62.169
;TYPE:SKIRT
G11
G1 F1800 X53.742 Y61.393 E0.24939
G1 X53.892 Y60.628 E0.49885
G1 X54.131 Y59.853 E0.75837
G1 X54.433 Y59.134 E1.00792
G1 X54.806 Y58.45 E1.25723
G1 X55.247 Y57.807 E1.50674
G1 X55.668 Y57.311 E1.71492
G1 X55.165 Y56.701 E1.96793
G1 X54.734 Y56.051 E2.2175
G1 X54.372 Y55.361 E2.46684
G1 X54.083 Y54.637 E2.7163
G1 X53.87 Y53.887 E2.96579
G1 X53.734 Y53.12 E3.21506
G1 X53.678 Y52.342 E3.46466
G1 X53.699 Y51.485 E3.73898
G1 X53.773 Y50.709 E3.98843
G1 X53.926 Y49.945 E4.23776
G1 X54.157 Y49.2 E4.48736
G1 X54.463 Y48.483 E4.73682
G1 X54.84 Y47.801 E4.98619
G1 X55.286 Y47.162 E5.23555
G1 X55.794 Y46.571 E5.48493
G1 X56.36 Y46.035 E5.73438
G1 X56.979 Y45.561 E5.98386
G1 X57.569 Y45.192 E6.20655
G1 X58.262 Y44.835 E6.456
G1 X58.988 Y44.552 E6.70535
G1 X59.74 Y44.344 E6.95503
G1 X60.508 Y44.215 E7.20423
G1 X61.286 Y44.165 E7.4537
G1 X62.065 Y44.194 E7.70316
G1 X62.837 Y44.304 E7.95269
G1 X63.593 Y44.492 E8.20198
G1 X64.326 Y44.756 E8.45129
G1 X65.029 Y45.094 E8.7009
G1 X65.564 Y45.424 E8.90205
G1 X66.129 Y45.109 E9.10905
G1 X66.829 Y44.765 E9.35863
G1 X67.56 Y44.495 E9.608
G1 X68.315 Y44.3 E9.85753
G1 X69.05 Y44.188 E10.09544
G1 X70.04 Y44.086 E10.41392
G1 X70.6 Y44.049 E10.59351
G1 X71.501 Y44.023 E10.88195
G1 X72.726 Y44.032 E11.27396
G1 X73.315 Y44.062 E11.46269
G1 X74.183 Y44.14 E11.74157
G1 X74.955 Y44.249 E11.99106
G1 X75.529 Y44.384 E12.17975
G1 X76.252 Y44.584 E12.4198
G1 X76.992 Y44.83 E12.66934
G1 X77.702 Y45.151 E12.91868
G1 X78.376 Y45.542 E13.16803
G1 X79.007 Y46.001 E13.41772
G1 X79.587 Y46.522 E13.6672
G1 X80.11 Y47.099 E13.9164
G1 X80.572 Y47.727 E14.16589
G1 X80.967 Y48.399 E14.41532
G1 X81.291 Y49.108 E14.66477
G1 X81.541 Y49.846 E14.91411
G1 X81.714 Y50.607 E15.16385
G1 X81.823 Y51.503 E15.45268
G1 X81.849 Y54.437 E16.3916
G1 X82.788 Y54.448 E16.6921
G1 X83.562 Y54.536 E16.94137
G1 X84.324 Y54.703 E17.191
G1 X85.064 Y54.948 E17.44044
G1 X85.775 Y55.266 E17.68968
G1 X86.45 Y55.656 E17.93914
G1 X87.081 Y56.113 E18.18846
G1 X87.663 Y56.633 E18.43821
G1 X88.188 Y57.209 E18.6876
G1 X88.651 Y57.836 E18.93702
G1 X89.048 Y58.507 E19.1865
G1 X89.373 Y59.215 E19.43579
G1 X89.625 Y59.953 E19.68534
G1 X89.799 Y60.713 E19.93483
G1 X89.908 Y61.718 E20.25832
G1 X90.054 Y65.237 E21.38537
G1 X90.166 Y65.621 E21.51337
G1 X90.305 Y66.388 E21.76281
G1 X90.362 Y67.057 E21.97766
G1 X90.643 Y74.015 E24.20604
G1 X90.743 Y74.347 E24.31699
G1 X90.889 Y75.113 E24.56652
G1 X90.956 Y75.873 E24.81067
G1 X91.156 Y81.264 E26.53697
G1 X91.261 Y81.63 E26.65882
G1 X91.399 Y82.397 E26.9082
G1 X91.453 Y83.06 E27.12106
G1 X91.506 Y84.432 E27.56043
G1 X91.64 Y88.597 E28.89392
G1 X91.741 Y92.289 E30.0758
G1 X91.844 Y92.657 E30.19809
G1 X91.976 Y93.426 E30.44777
G1 X92.028 Y94.139 E30.67653
G1 X92.086 Y96.52 E31.43868
G1 X92.16 Y100.142 E32.59796
G1 X92.176 Y101.309 E32.97143
G1 X92.266 Y101.646 E33.08305
G1 X92.39 Y102.416 E33.33263
G1 X92.433 Y103.137 E33.56376
G1 X92.449 Y104.365 E33.95675
G1 X92.42 Y105.144 E34.2062
G1 X92.31 Y105.916 E34.45574
G1 X92.237 Y106.221 E34.5561
G1 X92.257 Y109.443 E35.58716
G1 X92.257 Y113.304 E36.82268
G1 X92.233 Y117.125 E38.04542
G1 X92.185 Y121.066 E39.30663
G1 X92.114 Y125.444 E40.70778
G1 X91.929 Y132.411 E42.938
G1 X91.869 Y133.188 E43.18738
G1 X91.729 Y133.955 E43.43688
G1 X91.644 Y134.256 E43.53697
G1 X91.455 Y139.803 E45.31304
G1 X91.388 Y140.58 E45.5626
G1 X91.243 Y141.346 E45.81207
G1 X91.16 Y141.628 E45.90614
G1 X91.099 Y143.25 E46.42555
G1 X91.06 Y143.981 E46.6598
G1 X91.022 Y145.647 E47.19306
G1 X90.972 Y146.87 E47.58474
G1 X90.9 Y147.647 E47.83445
G1 X90.749 Y148.411 E48.08366
G1 X90.655 Y148.722 E48.18763
G1 X90.481 Y153.021 E49.56443
G1 X90.409 Y153.797 E49.81382
G1 X90.259 Y154.562 E50.06328
G1 X90.173 Y154.849 E50.15915
G1 X89.908 Y161.414 E52.26167
G1 X89.837 Y162.191 E52.51134
G1 X89.686 Y162.955 E52.76055
G1 X89.458 Y163.701 E53.01017
G1 X89.155 Y164.419 E53.25955
G1 X88.78 Y165.102 E53.50889
G1 X88.337 Y165.743 E53.75823
G1 X87.83 Y166.336 E54.00789
G1 X87.266 Y166.873 E54.25709
G1 X86.649 Y167.35 E54.50665
G1 X85.987 Y167.762 E54.75617
G1 X85.286 Y168.103 E55.00562
G1 X84.554 Y168.37 E55.25496
G1 X83.798 Y168.562 E55.50456
G1 X83.027 Y168.674 E55.75387
G1 X81.847 Y168.726 E56.13183
G1 X81.826 Y171.066 E56.88066
G1 X81.779 Y171.844 E57.13008
G1 X81.653 Y172.613 E57.37944
G1 X81.448 Y173.365 E57.62886
G1 X81.168 Y174.093 E57.87846
G1 X80.814 Y174.787 E58.12776
G1 X80.392 Y175.442 E58.3771
G1 X79.904 Y176.051 E58.62682
G1 X79.357 Y176.606 E58.87618
G1 X78.756 Y177.102 E59.12554
G1 X78.085 Y177.56 E59.38551
G1 X77.262 Y178.019 E59.68706
G1 X76.546 Y178.327 E59.93648
G1 X75.802 Y178.56 E60.18596
G1 X75.247 Y178.681 E60.36773
G1 X74.623 Y178.793 E60.57061
G1 X73.874 Y178.89 E60.81229
G1 X73.083 Y178.952 E61.06618
G1 X72.522 Y178.975 E61.24585
G1 X71.61 Y178.979 E61.5377
G1 X70.784 Y178.96 E61.80209
G1 X69.834 Y178.9 E62.10669
G1 X69.055 Y178.804 E62.35786
G1 X68.374 Y178.684 E62.57914
G1 X67.614 Y178.509 E62.8287
G1 X66.877 Y178.258 E63.07784
G1 X65.85 Y177.77 E63.4417
G1 X65.018 Y177.249 E63.75583
G1 X64.403 Y176.77 E64.00528
G1 X63.841 Y176.231 E64.25446
G1 X63.336 Y175.636 E64.50419
G1 X62.895 Y174.993 E64.7537
G1 X62.523 Y174.309 E65.00285
G1 X62.222 Y173.59 E65.25228
G1 X61.997 Y172.843 E65.50193
G1 X61.849 Y172.078 E65.75127
G1 X61.775 Y171.089 E66.06863
G1 X61.752 Y168.541 E66.88403
G1 X60.814 Y168.53 E67.18421
G1 X60.04 Y168.442 E67.43348
G1 X59.278 Y168.275 E67.68311
G1 X58.538 Y168.031 E67.93245
G1 X57.827 Y167.712 E68.18182
G1 X57.152 Y167.322 E68.43128
G1 X56.52 Y166.865 E68.68086
G1 X55.939 Y166.346 E68.93015
G1 X55.414 Y165.77 E69.17955
G1 X54.95 Y165.143 E69.42915
G1 X54.554 Y164.472 E69.67848
G1 X54.228 Y163.764 E69.9279
G1 X53.976 Y163.026 E70.17745
G1 X53.802 Y162.266 E70.42694
G1 X53.693 Y161.261 E70.75043
G1 X53.551 Y157.843 E71.84513
G1 X53.439 Y157.461 E71.97252
G1 X53.299 Y156.694 E72.22201
G1 X53.241 Y156.019 E72.43881
G1 X52.955 Y148.976 E74.69443
G1 X52.853 Y148.634 E74.80863
G1 X52.709 Y147.868 E75.05804
G1 X52.645 Y147.129 E75.29541
G1 X52.445 Y141.752 E77.01724
G1 X52.346 Y141.415 E77.12964
G1 X52.206 Y140.648 E77.37913
G1 X52.146 Y139.914 E77.61479
G1 X51.96 Y134.25 E79.42825
G1 X51.835 Y129.878 E80.82786
G1 X51.72 Y129.448 E80.9703
G1 X51.596 Y128.678 E81.21987
G1 X51.553 Y128.045 E81.4229
G1 X51.513 Y126.427 E81.94082
G1 X51.427 Y121.68 E83.46011
G1 X51.327 Y121.3 E83.58585
G1 X51.207 Y120.53 E83.83522
G1 X51.168 Y119.857 E84.05094
G1 X51.151 Y118.658 E84.43466
G1 X51.18 Y117.879 E84.68412
G1 X51.288 Y117.107 E84.93356
G1 X51.363 Y116.794 E85.03656
G1 X51.343 Y113.557 E86.07242
G1 X51.343 Y109.696 E87.30794
G1 X51.367 Y105.869 E88.5326
G1 X51.415 Y101.91 E89.79957
G1 X51.483 Y97.588 E91.18278
G1 X51.672 Y90.574 E93.42808
G1 X51.733 Y89.797 E93.67748
G1 X51.873 Y89.03 E93.92698
G1 X51.956 Y88.735 E94.02504
G1 X52.146 Y83.19 E95.80049
G1 X52.213 Y82.413 E96.05005
G1 X52.359 Y81.648 E96.29927
G1 X52.434 Y81.39 E96.38524
G1 X52.634 Y75.98 E98.11763
G1 X52.703 Y75.203 E98.36725
G1 X52.851 Y74.438 E98.61658
G1 X52.95 Y74.114 E98.725
G1 X53.12 Y69.969 E100.05251
G1 X53.192 Y69.193 E100.3019
G1 X53.344 Y68.428 E100.55148
G1 X53.427 Y68.151 E100.64402
G1 X53.67 Y62.169 E102.55984
G0 F5400 X54.47 Y62.201
G1 F1800 X54.539 Y61.467 E102.79575
G1 X54.688 Y60.745 E103.03166
G1 X54.884 Y60.124 E103.24004
G1 X55.171 Y59.445 E103.47594
G1 X55.53 Y58.8 E103.71215
G1 X55.956 Y58.199 E103.94789
G1 X56.764 Y57.287 E104.33779
G1 X56.118 Y56.615 E104.63608
G1 X55.669 Y56.03 E104.87206
G1 X55.285 Y55.401 E105.10788
G1 X54.972 Y54.733 E105.34394
G1 X54.733 Y54.036 E105.57973
G1 X54.571 Y53.316 E105.81589
G1 X54.488 Y52.584 E106.05163
G1 X54.482 Y51.697 E106.33548
G1 X54.571 Y50.786 E106.62839
G1 X54.722 Y50.065 E106.86411
G1 X54.95 Y49.364 E107.1
G1 X55.253 Y48.692 E107.33589
G1 X55.627 Y48.056 E107.57199
G1 X56.068 Y47.465 E107.80796
G1 X56.57 Y46.925 E108.04389
G1 X57.127 Y46.443 E108.2796
G1 X57.917 Y45.91 E108.58456
G1 X58.627 Y45.548 E108.83959
G1 X59.316 Y45.286 E109.07547
G1 X60.03 Y45.1 E109.31158
G1 X60.759 Y44.993 E109.54735
G1 X61.496 Y44.965 E109.78336
G1 X62.231 Y45.017 E110.01915
G1 X62.957 Y45.148 E110.25522
G1 X63.664 Y45.357 E110.49114
G1 X64.344 Y45.642 E110.72708
G1 X64.99 Y45.998 E110.96311
G1 X65.536 Y46.383 E111.1769
G1 X66.065 Y46.061 E111.37508
G1 X66.519 Y45.808 E111.54139
G1 X67.181 Y45.485 E111.7771
G1 X67.875 Y45.235 E112.01315
G1 X68.592 Y45.062 E112.24918
G1 X69.132 Y44.984 E112.42377
G1 X70.122 Y44.882 E112.74225
G1 X70.623 Y44.849 E112.90291
G1 X71.802 Y44.82 E113.28031
G1 X72.717 Y44.831 E113.57313
G1 X73.244 Y44.858 E113.74199
G1 X74.112 Y44.936 E114.02087
G1 X74.981 Y45.062 E114.30186
G1 X76.039 Y45.355 E114.65316
G1 X76.738 Y45.59 E114.88914
G1 X77.407 Y45.899 E115.12495
G1 X78.039 Y46.279 E115.36094
G1 X78.626 Y46.725 E115.59685
G1 X79.162 Y47.232 E115.83294
G1 X79.639 Y47.793 E116.06858
G1 X80.053 Y48.404 E116.30476
G1 X80.398 Y49.055 E116.54052
G1 X80.671 Y49.74 E116.77649
G1 X80.868 Y50.451 E117.01258
G1 X80.987 Y51.178 E117.24832
G1 X81.026 Y51.85 E117.46372
G1 X81.057 Y55.343 E118.58152
G1 X81.902 Y55.246 E118.8537
G1 X82.639 Y55.241 E119.08954
G1 X83.373 Y55.316 E119.32565
G1 X84.094 Y55.47 E119.56157
G1 X84.794 Y55.701 E119.79745
G1 X85.465 Y56.006 E120.03331
G1 X86.099 Y56.383 E120.26935
G1 X86.688 Y56.826 E120.50519
G1 X87.226 Y57.33 E120.7411
G1 X87.707 Y57.889 E120.97708
G1 X88.123 Y58.497 E121.21283
G1 X88.472 Y59.147 E121.44891
G1 X88.748 Y59.83 E121.68464
G1 X88.949 Y60.54 E121.92077
G1 X89.094 Y61.4 E122.19985
G1 X89.259 Y65.369 E123.47103
G1 X89.396 Y65.844 E123.62923
G1 X89.522 Y66.57 E123.86502
G1 X89.562 Y67.089 E124.03159
G1 X89.847 Y74.147 E126.29199
G1 X89.975 Y74.576 E126.43525
G1 X90.107 Y75.302 E126.67138
G1 X90.156 Y75.903 E126.86434
G1 X90.359 Y81.388 E128.62074
G1 X90.491 Y81.85 E128.7745
G1 X90.615 Y82.577 E129.0105
G1 X90.654 Y83.091 E129.17545
G1 X90.706 Y84.458 E129.61321
G1 X90.84 Y88.619 E130.94542
G1 X90.943 Y92.404 E132.15707
G1 X91.073 Y92.872 E132.3125
G1 X91.191 Y93.6 E132.5485
G1 X91.228 Y94.159 E132.72777
G1 X91.287 Y96.536 E133.48864
G1 X91.36 Y100.153 E134.64632
G1 X91.377 Y101.419 E135.05147
G1 X91.492 Y101.853 E135.19515
G1 X91.602 Y102.582 E135.43107
G1 X91.633 Y103.147 E135.61214
G1 X91.649 Y104.375 E136.00513
G1 X91.619 Y105.112 E136.24117
G1 X91.509 Y105.841 E136.47709
G1 X91.436 Y106.137 E136.57465
G1 X91.457 Y109.448 E137.63419
G1 X91.457 Y113.299 E138.86651
G1 X91.433 Y117.115 E140.08765
G1 X91.385 Y121.053 E141.34791
G1 X91.315 Y125.423 E142.74649
G1 X91.13 Y132.39 E144.97671
G1 X91.07 Y133.124 E145.21238
G1 X90.931 Y133.849 E145.4486
G1 X90.847 Y134.142 E145.54614
G1 X90.655 Y139.776 E147.35006
G1 X90.59 Y140.511 E147.58618
G1 X90.446 Y141.234 E147.82209
G1 X90.364 Y141.509 E147.91392
G1 X90.294 Y143.331 E148.49739
G1 X90.26 Y143.951 E148.69608
G1 X90.222 Y145.615 E149.2287
G1 X90.172 Y146.838 E149.62039
G1 X90.102 Y147.572 E149.85634
G1 X89.953 Y148.294 E150.09224
G1 X89.859 Y148.6 E150.19468
G1 X89.681 Y152.988 E151.59999
G1 X89.612 Y153.722 E151.83591
G1 X89.463 Y154.444 E152.07182
G1 X89.376 Y154.727 E152.16656
G1 X89.108 Y161.382 E154.29789
G1 X89.039 Y162.116 E154.5338
G1 X88.89 Y162.838 E154.76971
G1 X88.664 Y163.54 E155.00571
G1 X88.364 Y164.213 E155.24149
G1 X87.992 Y164.85 E155.47755
G1 X87.553 Y165.443 E155.71365
G1 X87.053 Y165.984 E155.94938
G1 X86.497 Y166.469 E156.18548
G1 X85.892 Y166.89 E156.42134
G1 X85.245 Y167.244 E156.65735
G1 X84.564 Y167.525 E156.89309
G1 X83.856 Y167.731 E157.12904
G1 X83.13 Y167.859 E157.36495
G1 X82.394 Y167.908 E157.60099
G1 X81.657 Y167.876 E157.83705
G1 X81.055 Y167.784 E158.03193
G1 X81.026 Y171.059 E159.07997
G1 X80.979 Y171.795 E159.31597
G1 X80.853 Y172.521 E159.55176
G1 X80.65 Y173.23 E159.78776
G1 X80.37 Y173.912 E160.02367
G1 X80.019 Y174.56 E160.2595
G1 X79.599 Y175.166 E160.49544
G1 X79.117 Y175.724 E160.73139
G1 X78.576 Y176.225 E160.96735
G1 X77.703 Y176.858 E161.31241
G1 X76.873 Y177.319 E161.61623
G1 X76.193 Y177.604 E161.85217
G1 X75.387 Y177.843 E162.12119
G1 X74.481 Y178.006 E162.41577
G1 X73.811 Y178.092 E162.63193
G1 X73.02 Y178.154 E162.88582
G1 X72.519 Y178.175 E163.04628
G1 X71.607 Y178.179 E163.33813
G1 X70.806 Y178.16 E163.59452
G1 X69.891 Y178.102 E163.88791
G1 X69.194 Y178.016 E164.11264
G1 X68.513 Y177.896 E164.33391
G1 X67.795 Y177.729 E164.56981
G1 X67.099 Y177.485 E164.80582
G1 X66.228 Y177.065 E165.11525
G1 X65.444 Y176.571 E165.41178
G1 X64.866 Y176.112 E165.64797
G1 X64.342 Y175.594 E165.88375
G1 X63.876 Y175.023 E166.11959
G1 X63.476 Y174.404 E166.35543
G1 X63.144 Y173.745 E166.59156
G1 X62.886 Y173.055 E166.82729
G1 X62.704 Y172.34 E167.06339
G1 X62.6 Y171.61 E167.29935
G1 X62.575 Y171.082 E167.4685
G1 X62.545 Y167.635 E168.57158
G1 X61.7 Y167.732 E168.84375
G1 X60.963 Y167.737 E169.0796
G1 X60.229 Y167.662 E169.3157
G1 X59.508 Y167.508 E169.55163
G1 X58.808 Y167.277 E169.78751
G1 X58.137 Y166.972 E170.02337
G1 X57.503 Y166.596 E170.25924
G1 X56.913 Y166.153 E170.49534
G1 X56.375 Y165.649 E170.73124
G1 X55.895 Y165.089 E170.96726
G1 X55.478 Y164.481 E171.20319
G1 X55.129 Y163.832 E171.43899
G1 X54.853 Y163.148 E171.67502
G1 X54.652 Y162.439 E171.91084
G1 X54.507 Y161.58 E172.18961
G1 X54.346 Y157.713 E173.42812
G1 X54.209 Y157.238 E173.58632
G1 X54.082 Y156.511 E173.82248
G1 X54.041 Y155.986 E173.99099
G1 X53.751 Y148.846 E176.27767
G1 X53.622 Y148.407 E176.42409
G1 X53.491 Y147.681 E176.66017
G1 X53.445 Y147.099 E176.84699
G1 X53.241 Y141.626 E178.59956
G1 X53.116 Y141.192 E178.74409
G1 X52.989 Y140.465 E178.98025
G1 X52.946 Y139.887 E179.16572
G1 X52.76 Y134.227 E180.9779
G1 X52.633 Y129.764 E182.40664
G1 X52.494 Y129.241 E182.57981
G1 X52.362 Y128.371 E182.86139
G1 X52.313 Y126.412 E183.48847
G1 X52.225 Y121.573 E185.03721
G1 X52.102 Y121.098 E185.19422
G1 X51.995 Y120.368 E185.43032
G1 X51.968 Y119.845 E185.5979
G1 X51.951 Y118.646 E185.98162
G1 X51.98 Y117.91 E186.21732
G1 X52.089 Y117.181 E186.45319
G1 X52.164 Y116.877 E186.55339
G1 X52.143 Y113.552 E187.61741
G1 X52.143 Y109.701 E188.84973
G1 X52.167 Y105.879 E190.0728
G1 X52.215 Y101.922 E191.33913
G1 X52.282 Y97.61 E192.71913
G1 X52.471 Y90.596 E194.96443
G1 X52.531 Y89.861 E195.20041
G1 X52.67 Y89.137 E195.43632
G1 X52.753 Y88.85 E195.53193
G1 X52.946 Y83.217 E197.33554
G1 X53.011 Y82.483 E197.57134
G1 X53.155 Y81.76 E197.80725
G1 X53.23 Y81.506 E197.892
G1 X53.434 Y76.009 E199.65225
G1 X53.501 Y75.275 E199.8881
G1 X53.647 Y74.552 E200.12413
G1 X53.746 Y74.233 E200.23102
G1 X53.919 Y70.003 E201.58575
G1 X53.99 Y69.269 E201.82173
G1 X54.14 Y68.547 E202.0577
G1 X54.224 Y68.272 E202.14971
G1 X54.47 Y62.201 E204.09403
G0 F5400 X55.269 Y62.234
G1 F1800 X55.337 Y61.545 E204.31558
G1 X55.534 Y60.636 E204.61321
G1 X55.908 Y59.758 E204.9186
G1 X56.252 Y59.156 E205.14047
G1 X56.662 Y58.598 E205.36205
G1 X57.134 Y58.092 E205.58348
G1 X57.661 Y57.643 E205.80503
G1 X58.159 Y57.309 E205.99691
G1 X57.574 Y56.904 E206.22459
G1 X57.054 Y56.446 E206.44634
G1 X56.591 Y55.931 E206.66794
G1 X56.19 Y55.367 E206.88939
G1 X55.857 Y54.759 E207.11122
G1 X55.597 Y54.118 E207.33257
G1 X55.411 Y53.451 E207.55416
G1 X55.304 Y52.766 E207.77601
G1 X55.278 Y51.755 E208.09964
G1 X55.368 Y50.866 E208.38558
G1 X55.517 Y50.19 E208.60709
G1 X55.743 Y49.535 E208.82881
G1 X56.043 Y48.911 E209.05037
G1 X56.413 Y48.326 E209.27187
G1 X56.848 Y47.787 E209.49352
G1 X57.342 Y47.302 E209.71505
G1 X57.889 Y46.877 E209.93671
G1 X58.372 Y46.575 E210.119
G1 X58.99 Y46.263 E210.34053
G1 X59.64 Y46.023 E210.56226
G1 X60.313 Y45.861 E210.78377
G1 X61.001 Y45.776 E211.0056
G1 X61.693 Y45.772 E211.22705
G1 X62.381 Y45.847 E211.44851
G1 X63.057 Y46.002 E211.67044
G1 X63.709 Y46.233 E211.89179
G1 X64.331 Y46.537 E212.11333
